packages/vapor/resources/icons/svg/domain-salesforce.svg

<?xml version="1.0" encoding="UTF-8" standalone="no"?>
<svg width="28px" height="21px" viewBox="0 0 28 21" version="1.1" xmlns="http://www.w3.org/2000/svg" xmlns:xlink="http://www.w3.org/1999/xlink" xmlns:sketch="http://www.bohemiancoding.com/sketch/ns">
    <g stroke="none" stroke-width="1">
        <g transform="translate(-580.000000, -452.000000)">
            <g transform="translate(549.000000, 259.000000)">
                <g transform="translate(24.000000, 182.000000)" >
                    <g transform="translate(2.000000, 2.000000)">
                        <path d="M26.7862732,12.460885 C25.9341268,12.460885 25.124522,12.6446018 24.392361,12.9742035 C23.5504878,11.4619912 21.9692098,10.4435841 20.1569171,10.4435841 C18.7937463,10.4435841 17.5612293,11.0204867 16.6758927,11.9502212 C15.7016537,10.6661947 14.1648927,9.83774336 12.4359707,9.83774336 C9.49099512,9.83774336 7.10366829,12.2406637 7.10366829,15.205354 C7.10366829,15.9649115 7.26013659,16.6862389 7.54225366,17.3401327 C6.17262927,18.1470796 5.25094146,19.6549115 5.25094146,21.3823009 C5.25094146,23.9597788 7.30241463,26.0486283 9.83343415,26.0486283 C10.1561171,26.0486283 10.4714244,26.014646 10.7751415,25.9498673 C11.4702927,27.8510177 13.2821902,29.2067257 15.4076829,29.2067257 C17.4486195,29.2067257 19.1996683,27.9570796 19.9514537,26.1748673 C20.5229317,26.455885 21.1656634,26.614115 21.8444829,26.614115 C23.4659317,26.614115 24.8792829,25.7134513 25.6207951,24.3805752 C25.9976098,24.4573009 26.3874634,24.4975221 26.7864049,24.4975221 C30.0555122,24.4975221 32.7053317,21.8034956 32.7053317,18.4801327 C32.7053317,15.1554425 30.0553805,12.460885 26.7862732,12.460885 L26.7862732,12.460885 Z" ></path>
                    </g>
                </g>
            </g>
        </g>
    </g>
</svg>

<svg viewBox="0 0 28 21" xmlns="http://www.w3.org/2000/svg">
  <path d="m26.786 12.461c-.852 0-1.662.184-2.394.513-.842-1.512-2.423-2.531-4.235-2.531-1.363 0-2.596.577-3.481 1.507-.974-1.284-2.511-2.112-4.24-2.112-2.945 0-5.332 2.403-5.332 5.368 0 .76.156 1.481.439 2.135-1.37.807-2.291 2.315-2.291 4.04 0 2.577 2.051 4.666 4.582 4.666.323 0 .638-.034.942-.099.695 1.901 2.507 3.257 4.633 3.257 2.041 0 3.792-1.25 4.544-3.03.571.281 1.214.439 1.893.439 1.621 0 3.035-.901 3.776-2.234.377.077.767.117 1.166.117 3.269 0 5.919-2.694 5.919-6.02 0-3.325-2.65-6.02-5.919-6.02"
      transform="translate(-5-9)"/>
</svg>
